outputs/icons/communication/wifi_call_sharp.svg

<svg width="1200" height="1200" viewBox="0 0 1200 1200" fill="none" xmlns="http://www.w3.org/2000/svg"><g clip-path="url(#clip0_858_1958)"><path d="M605.57 845L731.57 720C743.07 708.5 760.07 703.5 776.57 707L960.07 743.5C983.07 748 1000.07 768.5 1000.07 792.5V1000C1000.07 1028 976.57 1051.5 948.57 1050C804.07 1041.5 668.57 997 550.07 928.5C414.069 849.5 300.569 736.5 221.569 600C152.569 481.5 108.569 346 100.069 201.5C98.569 173.5 122.069 150 150.069 150H357.569C381.569 150 402.069 167 406.569 190L444.069 374C447.069 390.5 442.069 407 430.569 419L305.569 545C377.069 670 480.569 773.5 605.57 845Z" fill="black"/><path d="M491.578 267C564.08 195 664.08 150 774.58 150C885.08 150 985.08 195 1056.58 267L1003.58 320C945.08 261 863.58 224.5 774.08 224.5C684.58 224.5 603.58 261 544.58 320L491.578 267Z" fill="black"/><path d="M774.56 300C843.56 300 906.06 328 951.56 373L897.56 426C866.06 394 822.06 374.5 774.06 374.5C726.06 374.5 682.06 394.5 650.56 426L597.56 373C643.06 328 705.56 300 774.56 300Z" fill="black"/><path d="M704.08 479.5L774.58 550L845.08 479.5C827.08 461 802.08 450 774.58 450C747.08 450 722.08 461 704.08 479.5Z" fill="black"/></g><defs><clipPath id="clip0_858_1958"><path width="24" fill="white" d="M0 0H1200V1200H0V0z"/></clipPath></defs></svg>

<svg xmlns="http://www.w3.org/2000/svg" width="1200" height="1200" fill="none"><g fill="#000" clip-path="url(#a)"><path d="m605.57 845 126-125c11.5-11.5 28.5-16.5 45-13l183.5 36.5c23 4.5 40 25 40 49V1000c0 28-23.5 51.5-51.5 50-144.5-8.5-280-53-398.5-121.5-136.001-79-249.501-192-328.501-328.5-69-118.5-113-254-121.5-398.5-1.5-28 22-51.5 50-51.5h207.5c24 0 44.5 17 49 40l37.5 184c3 16.5-2 33-13.5 45l-125 126c71.5 125 175 228.5 300.001 300"/><path d="M491.578 267C564.08 195 664.08 150 774.58 150s210.5 45 282 117l-53 53c-58.5-59-140-95.5-229.5-95.5S603.58 261 544.58 320z"/><path d="M774.56 300c69 0 131.5 28 177 73l-54 53c-31.5-32-75.5-51.5-123.5-51.5s-92 20-123.5 51.5l-53-53c45.5-45 108-73 177-73M704.08 479.5l70.5 70.5 70.5-70.5c-18-18.5-43-29.5-70.5-29.5s-52.5 11-70.5 29.5"/></g><defs><clipPath id="a"><path fill="#fff" d="M0 0h1200v1200H0z"/></clipPath></defs></svg>
